packages/kaspersky-hexa-ui-icons/src/iconsSVGs/40/Warning.svg

<svg xmlns="http://www.w3.org/2000/svg" width="40" height="40" fill="none" viewBox="0 0 40 40"><path fill="#000" fill-rule="evenodd" d="m36.2233 25.9806-.0025-.0045L25.5357 7.1927l-.0026-.0047c-2.3819-4.2505-8.6703-4.2507-11.0524-.0004L3.7794 25.9758l-.0027.0048C1.4633 30.1171 4.6152 35 9.3058 35h21.3886c4.6905 0 7.8425-4.8829 5.529-9.0194M19 15c0-.5523.4477-1 1-1s1 .4477 1 1v8c0 .5523-.4477 1-1 1s-1-.4477-1-1zm1 11c-.5523 0-1 .4477-1 1s.4477 1 1 1 1-.4477 1-1-.4477-1-1-1"/></svg>

<svg width="40" height="40" viewBox="0 0 40 40" fill="none" xmlns="http://www.w3.org/2000/svg">
<path fill-rule="evenodd" clip-rule="evenodd" d="M36.2233 25.9806L36.2208 25.9761L25.5357 7.1927L25.5331 7.18799C23.1512 2.93746 16.8628 2.93733 14.4807 7.18764L3.77943 25.9758L3.77675 25.9806C1.46321 30.1171 4.61522 35 9.30567 35H30.6943C35.3848 35 38.5368 30.1171 36.2233 25.9806ZM19 15C19 14.4477 19.4477 14 20 14C20.5523 14 21 14.4477 21 15V23C21 23.5523 20.5523 24 20 24C19.4477 24 19 23.5523 19 23V15ZM20 26C19.4477 26 19 26.4477 19 27C19 27.5523 19.4477 28 20 28C20.5523 28 21 27.5523 21 27C21 26.4477 20.5523 26 20 26Z" fill="black"/>
</svg>
